build/img/img-advantage-3.svg

<?xml version="1.0" encoding="UTF-8"?>
<svg width="79px" height="79px" viewBox="0 0 79 79" version="1.1" xmlns="http://www.w3.org/2000/svg" xmlns:xlink="http://www.w3.org/1999/xlink">
    <!-- Generator: Sketch 47.1 (45422) - http://www.bohemiancoding.com/sketch -->
    <title>Group</title>
    <desc>Created with Sketch.</desc>
    <defs></defs>
    <g id="Page-1" stroke="none" stroke-width="1" fill="none" fill-rule="evenodd">
        <g id="Desktop-HD-Copy-3" transform="translate(-1025.000000, -2310.000000)" fill-rule="nonzero">
            <g id="noun_1232268_cc" transform="translate(1025.000000, 2310.000000)">
                <g id="Group">
                    <path d="M39.5,0.774509804 C18.1467647,0.774509804 0.774509804,18.1467647 0.774509804,39.5 C0.774509804,60.8532353 18.1467647,78.2254902 39.5,78.2254902 C60.8532353,78.2254902 78.2254902,60.8532353 78.2254902,39.5 C78.2254902,18.1467647 60.8532353,0.774509804 39.5,0.774509804 Z M39.5,74.3529412 C20.2844118,74.3529412 4.64705882,58.7194608 4.64705882,39.5 C4.64705882,20.2805392 20.2844118,4.64705882 39.5,4.64705882 C58.7155882,4.64705882 74.3529412,20.2805392 74.3529412,39.5 C74.3529412,58.7194608 58.7155882,74.3529412 39.5,74.3529412 Z" id="Shape" fill="#33495F"></path>
                    <path d="M52.4304412,24.0291667 L33.2613235,32.2428431 C32.8043627,32.4403431 32.4403431,32.8043627 32.2428431,33.2613235 L24.0252941,52.4265686 C23.7116176,53.1546078 23.8742647,53.9988235 24.4357843,54.5603431 C24.807549,54.9321078 25.3032353,55.1257353 25.8066667,55.1257353 C26.0622549,55.1257353 26.3217157,55.0715196 26.5695588,54.9708333 L45.7386765,46.7571569 C46.1956373,46.5596569 46.5596569,46.1956373 46.7571569,45.7386765 L54.9747059,26.5734314 C55.2883824,25.8453922 55.1257353,25.0011765 54.5642157,24.4396569 C53.9988235,23.8820098 53.1546078,23.7232353 52.4304412,24.0291667 Z M43.5003431,43.5003431 L29.4933333,49.5027941 L35.4957843,35.4996569 L49.5027941,29.4972059 L43.5003431,43.5003431 Z" id="Shape" fill="#E94C36"></path>
                    <path d="M20.1372549,37.5637255 L12.3921569,37.5637255 C11.3233333,37.5637255 10.4558824,38.4311765 10.4558824,39.5 C10.4558824,40.5688235 11.3233333,41.4362745 12.3921569,41.4362745 L20.1372549,41.4362745 C21.2060784,41.4362745 22.0735294,40.5688235 22.0735294,39.5 C22.0735294,38.4311765 21.2060784,37.5637255 20.1372549,37.5637255 Z" id="Shape" fill="#000000"></path>
                    <path d="M39.5,22.0735294 C40.5688235,22.0735294 41.4362745,21.2060784 41.4362745,20.1372549 L41.4362745,12.3921569 C41.4362745,11.3233333 40.5688235,10.4558824 39.5,10.4558824 C38.4311765,10.4558824 37.5637255,11.3233333 37.5637255,12.3921569 L37.5637255,20.1372549 C37.5637255,21.2060784 38.4311765,22.0735294 39.5,22.0735294 Z" id="Shape" fill="#000000"></path>
                    <path d="M56.9264706,39.5 C56.9264706,40.5688235 57.7939216,41.4362745 58.8627451,41.4362745 L66.6078431,41.4362745 C67.6766667,41.4362745 68.5441176,40.5688235 68.5441176,39.5 C68.5441176,38.4311765 67.6766667,37.5637255 66.6078431,37.5637255 L58.8627451,37.5637255 C57.7939216,37.5637255 56.9264706,38.4311765 56.9264706,39.5 Z" id="Shape" fill="#000000"></path>
                    <path d="M39.5,56.9264706 C38.4311765,56.9264706 37.5637255,57.7939216 37.5637255,58.8627451 L37.5637255,66.6078431 C37.5637255,67.6766667 38.4311765,68.5441176 39.5,68.5441176 C40.5688235,68.5441176 41.4362745,67.6766667 41.4362745,66.6078431 L41.4362745,58.8627451 C41.4362745,57.7939216 40.5688235,56.9264706 39.5,56.9264706 Z" id="Shape" fill="#000000"></path>
                </g>
            </g>
        </g>
    </g>
</svg>

<svg width="79" height="79" viewBox="0 0 79 79" xmlns="http://www.w3.org/2000/svg"><title>Group</title><g id="Page-1" fill="none" fill-rule="evenodd"><g id="Desktop-HD-Copy-3" transform="translate(-1025 -2310)" fill-rule="nonzero"><g id="noun_1232268_cc" transform="translate(1025 2310)"><g id="Group"><path d="M39.5.775C18.147.775.775 18.147.775 39.5S18.147 78.225 39.5 78.225 78.225 60.853 78.225 39.5 60.853.775 39.5.775zm0 73.578c-19.216 0-34.853-15.634-34.853-34.853 0-19.22 15.637-34.853 34.853-34.853S74.353 20.281 74.353 39.5c0 19.22-15.637 34.853-34.853 34.853z" id="Shape" fill="#33495F"/><path d="M52.43 24.03l-19.169 8.213a1.953 1.953 0 0 0-1.018 1.018l-8.218 19.166a1.934 1.934 0 0 0 1.782 2.699c.255 0 .515-.054.763-.155l19.169-8.214a1.953 1.953 0 0 0 1.018-1.018l8.218-19.166a1.934 1.934 0 0 0-.41-2.133 1.957 1.957 0 0 0-2.135-.41zM43.5 43.5l-14.007 6.003L35.496 35.5l14.007-6.003L43.5 43.5z" id="Shape" fill="#E94C36"/><path d="M20.137 37.564h-7.745a1.937 1.937 0 0 0 0 3.872h7.745a1.937 1.937 0 0 0 0-3.872zM39.5 22.074a1.937 1.937 0 0 0 1.936-1.937v-7.745a1.937 1.937 0 0 0-3.872 0v7.745c0 1.07.867 1.937 1.936 1.937zM56.926 39.5c0 1.069.868 1.936 1.937 1.936h7.745a1.937 1.937 0 0 0 0-3.872h-7.745a1.937 1.937 0 0 0-1.937 1.936zM39.5 56.926a1.937 1.937 0 0 0-1.936 1.937v7.745a1.937 1.937 0 0 0 3.872 0v-7.745a1.937 1.937 0 0 0-1.936-1.937z" id="Shape" fill="#000"/></g></g></g></g></svg>
